sega/_inc/system.svg

<svg xmlns="http://www.w3.org/2000/svg"><g fill="#fff"><path d="m.033 181.398 79.281-.081c32.436 0 58.722-26.205 58.722-58.497 0-32.352-26.286-58.56-58.722-58.56l-20.592.111c-1.623 0-2.937-1.329-2.937-2.967s1.314-2.97 2.937-2.97l79.137.015.033-24.825h-79.185c-15.312 0-27.765 12.435-27.765 27.717 0 15.294 12.453 27.681 27.765 27.681l20.685.273c18.585 0 33.624 14.988 33.624 33.48 0 18.504-15.036 33.525-33.624 33.525h-79.329z"/><path d="m.063 150.471h79.329c15.36 0 27.78-12.387 27.78-27.699 0-15.294-12.42-27.669-27.78-27.669l-20.685-.222c-18.555 0-33.606-15.006-33.606-33.543 0-18.486 15.051-33.495 33.606-33.495l79.185-.015-.033-24.924h-79.137c-32.403 0-58.722 26.178-58.722 58.5s26.319 58.512 58.722 58.512l20.478.033c1.557 0 2.874 1.269 2.874 2.871 0 1.575-1.317 2.841-2.874 2.841l-79.167.066z"/><path d="m199.503 156.459c-13.755 0-25.023-10.962-25.023-24.957v-79.2c0-13.464 11.268-24.54 25.023-24.54l84.624.015v-24.873h-84.624c-27.54 0-49.848 22.227-49.848 49.671v78.927c0 27.447 22.308 49.707 49.848 49.707l84.27.033-.015-24.813z"/><path d="m180.549 52.575c0-10.494 8.442-19.002 18.954-19.002h84.624v24.909h-72.909c-5.841 0-5.922 5.793-5.922 5.793h60.825v24.795h-85.602z"/><path d="m199.503 150.426c-10.482 0-18.987-8.457-18.987-18.924v-36.528h85.605v24.846h-60.828c.081 5.841 5.922 5.871 5.922 5.871h72.555l-.015 24.702z"/><path d="m343.428 156.396c-13.704 0-24.906-11.169-24.906-24.894v-78.93c0-13.737 11.121-24.81 24.843-24.81h81.963v-24.858h-82.155c-27.525 0-49.833 22.227-49.833 49.671v78.927c0 27.447 22.5 49.707 50.025 49.707l81.963.033v-116.967h-70.44v24.795h45.546v67.326z"/><path d="m324.363 131.502c0 10.515 8.505 19.068 19.002 19.068h51.195v-55.626h-39.609v24.876h14.7l.045 5.841h-14.634c-3.195 0-5.808-2.646-5.808-5.841l-.132-55.56s-.018-5.778 5.874-5.922h70.359l-.033-24.78-81.963.015c-10.494 0-19.002 8.508-19.002 19.002v78.927"/><path d="m502.344 33.204c1.104-3.159 4.107-5.439 7.653-5.439 3.552 0 6.582 2.28 7.656 5.439l39.789 117.54h-58.26l.063-27.651h19.47l-8.766-26.046-28.551 84.174h-29.367z"/><path d="m565.464 156.396h-66.186v24.825h100.722l-52.383-154.983c-4.59-15.117-19.722-26.238-37.635-26.238-17.943 0-33.027 11.073-37.653 26.178l-52.863 155.046h26.37l51.324-150.714c2.085-4.992 6.999-8.508 12.777-8.508 5.745 0 10.686 3.516 12.789 8.475z"/></g></svg>

<?xml version="1.0" encoding="utf-8"?>
<svg version="1.1" xmlns="http://www.w3.org/2000/svg">
  <g>
    <path d="M 0.033 181.398 L 79.314 181.317 C 111.75 181.317 138.036 155.112 138.036 122.82 C 138.036 90.468 111.75 64.26 79.314 64.26 L 58.722 64.371 C 57.099 64.371 55.785 63.042 55.785 61.404 C 55.785 59.766 57.099 58.434 58.722 58.434 L 137.859 58.449 L 137.892 33.624 L 58.707 33.624 C 43.395 33.624 30.942 46.059 30.942 61.341 C 30.942 76.635 43.395 89.022 58.707 89.022 L 79.392 89.295 C 97.977 89.295 113.016 104.283 113.016 122.775 C 113.016 141.279 97.98 156.3 79.392 156.3 L 0.063 156.3 L 0.033 181.398" style="fill: rgb(255, 255, 255);"/>
    <path d="M 0.063 150.471 L 79.392 150.471 C 94.752 150.471 107.172 138.084 107.172 122.772 C 107.172 107.478 94.752 95.103 79.392 95.103 L 58.707 94.881 C 40.152 94.881 25.101 79.875 25.101 61.338 C 25.101 42.852 40.152 27.843 58.707 27.843 L 137.892 27.828 L 137.859 2.904 L 58.722 2.904 C 26.319 2.904 0 29.082 0 61.404 C 0 93.726 26.319 119.916 58.722 119.916 L 79.2 119.949 C 80.757 119.949 82.074 121.218 82.074 122.82 C 82.074 124.395 80.757 125.661 79.2 125.661 L 0.033 125.727 L 0.063 150.471" style="fill: rgb(255, 255, 255);"/>
    <path d="M 199.503 156.459 C 185.748 156.459 174.48 145.497 174.48 131.502 L 174.48 52.302 C 174.48 38.838 185.748 27.762 199.503 27.762 L 284.127 27.777 L 284.127 2.904 L 199.503 2.904 C 171.963 2.904 149.655 25.131 149.655 52.575 L 149.655 131.502 C 149.655 158.949 171.963 181.209 199.503 181.209 L 283.773 181.242 L 283.758 156.429 L 199.503 156.459" style="fill: rgb(255, 255, 255);"/>
    <path d="M 180.549 52.575 C 180.549 42.081 188.991 33.573 199.503 33.573 L 284.127 33.573 L 284.127 58.482 L 211.218 58.482 C 205.377 58.482 205.296 64.275 205.296 64.275 L 266.121 64.275 L 266.121 89.07 L 180.519 89.07 L 180.549 52.575" style="fill: rgb(255, 255, 255);"/>
    <path d="M 199.503 150.426 C 189.021 150.426 180.516 141.969 180.516 131.502 L 180.516 94.974 L 266.121 94.974 L 266.121 119.82 L 205.293 119.82 C 205.374 125.661 211.215 125.691 211.215 125.691 L 283.77 125.691 L 283.755 150.393 L 199.503 150.426" style="fill: rgb(255, 255, 255);"/>
    <path d="M 343.428 156.396 C 329.724 156.396 318.522 145.227 318.522 131.502 L 318.522 52.572 C 318.522 38.835 329.643 27.762 343.365 27.762 L 425.328 27.762 L 425.328 2.904 L 343.173 2.904 C 315.648 2.904 293.34 25.131 293.34 52.575 L 293.34 131.502 C 293.34 158.949 315.84 181.209 343.365 181.209 L 425.328 181.242 L 425.328 64.275 L 354.888 64.275 L 354.888 89.07 L 400.434 89.07 L 400.434 156.396 L 343.428 156.396" style="fill: rgb(255, 255, 255);"/>
    <path d="M 324.363 131.502 C 324.363 142.017 332.868 150.57 343.365 150.57 L 394.56 150.57 L 394.56 94.944 L 354.951 94.944 L 354.951 119.82 L 369.651 119.82 L 369.696 125.661 L 355.062 125.661 C 351.867 125.661 349.254 123.015 349.254 119.82 L 349.122 64.26 C 349.122 64.26 349.104 58.482 354.996 58.338 L 425.355 58.338 L 425.322 33.558 L 343.359 33.573 C 332.865 33.573 324.357 42.081 324.357 52.575 L 324.357 131.502" style="fill: rgb(255, 255, 255);"/>
    <path d="M 502.344 33.204 C 503.448 30.045 506.451 27.765 509.997 27.765 C 513.549 27.765 516.579 30.045 517.653 33.204 L 557.442 150.744 L 499.182 150.744 L 499.245 123.093 L 518.715 123.093 L 509.949 97.047 L 481.398 181.221 L 452.031 181.221 L 502.344 33.204" style="fill: rgb(255, 255, 255);"/>
    <path d="M 565.464 156.396 L 499.278 156.396 L 499.278 181.221 L 600 181.221 L 547.617 26.238 C 543.027 11.121 527.895 0 509.982 0 C 492.039 0 476.955 11.073 472.329 26.178 L 419.466 181.224 L 445.836 181.224 L 497.16 30.51 C 499.245 25.518 504.159 22.002 509.937 22.002 C 515.682 22.002 520.623 25.518 522.726 30.477 L 565.464 156.396" style="fill: rgb(255, 255, 255);"/>
  </g>
</svg>
